X: 3218
M: 6/8
L: 1/8
K: A
uE |\
vA2vE uA2uE | A2B c2c |\
d2c B2A | G2F E2E |\
fed c2B | A3- A2 :|
|: c |\
fed cde | dcB A2c |\
fed c2B | A3- A2 :|


